X: 1389
T: the Flax In Bloom
B: O'Neill's 1850 #1389
R: reel
%S: s:3 b:16(6+5+6)
N: J.O'Neill
Z: Bob Safranek, rjs@gsp.org
Z: Compacted via repeats and multiple endings [JC]
M: C|
L: 1/8
K: D
"^A"\
[| D2 (3(FED) FAAf | (3(gfe) (3(fed) edBd | (3(ABA) (FA) dfaf | (ga)fd (ed)Bd ||
|| D2 (3(FED) FAAf | (3(gfe) (3(fed) edBd | (AB)AF (AB)de | (fa)eg (fd)d2 |]
"^B"\
[| (3(fgf) df (3(efe) ce | dcdB AGFG | DFAd FAdf | (3(gfe) (3(fed) edBdA ||
|| DFAc defg | (ag)eg (fd)d2 | D2 (3(FED) FAAf | (3(gfe) (3(fed) edBd |]
